src/Pure/16/symbolic/apps/org.gnome.Settings-diagnostics-symbolic.svg

<?xml version="1.0" encoding="UTF-8" standalone="no"?>
<svg
   width="16px"
   height="16px"
   version="1.1"
   viewBox="0 0 16 16"
   id="svg3"
   sodipodi:docname="org.gnome.Settings-diagnostics-symbolic.svg"
   inkscape:version="1.4.2 (ebf0e940d0, 2025-05-08)"
   xmlns:inkscape="http://www.inkscape.org/namespaces/inkscape"
   xmlns:sodipodi="http://sodipodi.sourceforge.net/DTD/sodipodi-0.dtd"
   xmlns="http://www.w3.org/2000/svg"
   xmlns:svg="http://www.w3.org/2000/svg">
  <defs
     id="defs3">
     <style
        id="current-color-scheme"
        type="text/css">
        .ColorScheme-Text { color:#363636; }
     </style>
  </defs>
  <sodipodi:namedview
     id="namedview3"
     pagecolor="#ffffff"
     bordercolor="#000000"
     borderopacity="0.25"
     inkscape:showpageshadow="2"
     inkscape:pageopacity="0.0"
     inkscape:pagecheckerboard="0"
     inkscape:deskcolor="#d1d1d1"
     inkscape:zoom="49.6875"
     inkscape:cx="8"
     inkscape:cy="8"
     inkscape:window-width="1920"
     inkscape:window-height="1010"
     inkscape:window-x="0"
     inkscape:window-y="0"
     inkscape:window-maximized="1"
     inkscape:current-layer="svg3" />
  <path
     id="path1"
     style="fill:currentColor"
     class="ColorScheme-Text"
     d="M 2 2 C 0.892 2 0 2.892 0 4 L 0 11 C 0 12.108 0.892 13 2 13 L 12.878906 13 L 11.880859 12 L 2 12 C 1.446 12 1 11.554 1 11 L 1 4 C 1 3.446 1.446 3 2 3 L 9.421875 3 L 14 3 C 14.554 3 15 3.446 15 4 L 15 10.878906 L 15.859375 11.738281 C 15.949816 11.509781 16 11.26143 16 11 L 16 4 C 16 2.892 15.108 2 14 2 L 2 2 z M 9.6777344 4.0058594 A 3.5 3.5 0 0 0 9.25 4.0097656 A 3.5 3.5 0 0 0 7.0253906 5.0253906 A 3.5 3.5 0 0 0 7.0253906 9.9746094 A 3.5 3.5 0 0 0 11.595703 10.302734 L 11.597656 10.302734 L 14.802734 13.509766 C 14.998604 13.705636 15.313896 13.705636 15.509766 13.509766 C 15.705636 13.313896 15.705636 12.998604 15.509766 12.802734 L 12.302734 9.5957031 A 3.5 3.5 0 0 0 11.974609 5.0253906 A 3.5 3.5 0 0 0 9.6777344 4.0058594 z M 9.5917969 5.0019531 A 2.5 2.5 0 0 1 11.267578 5.7324219 A 2.5 2.5 0 0 1 11.267578 9.2675781 A 2.5 2.5 0 0 1 7.7324219 9.2675781 A 2.5 2.5 0 0 1 7.7324219 5.7324219 A 2.5 2.5 0 0 1 9.28125 5.0097656 A 2.5 2.5 0 0 1 9.5917969 5.0019531 z M 4.5 14 C 4.223 14 4 14.223 4 14.5 C 4 14.777 4.223 15 4.5 15 L 11.5 15 C 11.777 15 12 14.777 12 14.5 C 12 14.223 11.777 14 11.5 14 L 4.5 14 z " />
</svg>

<svg width="16px" height="16px" version="1.1" viewBox="0 0 16 16" xmlns="http://www.w3.org/2000/svg">
 <path d="m4.5 14h7c0.277 0 0.5 0.223 0.5 0.5s-0.223 0.5-0.5 0.5h-7c-0.277 0-0.5-0.223-0.5-0.5s0.223-0.5 0.5-0.5z" fill="#363636"/>
 <path d="m2 2c-1.108 0-2 0.892-2 2v7c0 1.108 0.892 2 2 2h10.879l-0.99805-1h-9.8809c-0.554 0-1-0.446-1-1v-7c0-0.554 0.446-1 1-1h7.4219 4.5781c0.554 0 1 0.446 1 1v6.8789l0.85938 0.85938c0.090441-0.2285 0.14062-0.47685 0.14062-0.73828v-7c0-1.108-0.892-2-2-2h-12z" fill="#363636"/>
 <path d="m9.25 4.0098a3.5 3.5 0 0 0-2.2246 1.0156 3.5 3.5 0 0 0 0 4.9492 3.5 3.5 0 0 0 4.5703 0.32812h2e-3l3.2051 3.207c0.19587 0.19587 0.51116 0.19587 0.70703 0 0.19587-0.19587 0.19587-0.51116 0-0.70703l-3.2071-3.207a3.5 3.5 0 0 0-0.32812-4.5703 3.5 3.5 0 0 0-2.7246-1.0156zm0.03125 1a2.5 2.5 0 0 1 1.9863 0.72266 2.5 2.5 0 0 1 0 3.5352 2.5 2.5 0 0 1-3.5352 0 2.5 2.5 0 0 1 0-3.5352 2.5 2.5 0 0 1 1.5488-0.72266z" color="#000000" fill="#363636" stroke-linecap="round" stroke-linejoin="round" stroke-width="2" style="-inkscape-stroke:none"/>
</svg>
